packages/ui-solid/icons/channel_24.svg

<svg width="24" height="24" viewBox="0 0 24 24" fill="none" xmlns="http://www.w3.org/2000/svg">
<path fill-rule="evenodd" clip-rule="evenodd" d="M19.8388 4.69583C19.4928 4.13177 18.8737 3.83631 18.2546 3.91168C18.1243 3.92755 17.8753 4.01788 17.3621 4.38267C16.8629 4.73754 16.2305 5.26343 15.3342 6.01004L14.3211 6.85388V14.2205L15.5221 15.067C16.3961 15.683 17.0088 16.114 17.4912 16.4009C17.9828 16.6932 18.2211 16.7607 18.3519 16.7685C18.9513 16.8042 19.5336 16.4965 19.8565 15.9461C19.9317 15.8179 20.013 15.5651 20.0566 14.981C20.0994 14.407 20.1 13.641 20.1 12.5522V8.38075C20.1 7.19519 20.0994 6.35661 20.0532 5.73194C20.0058 5.09124 19.9168 4.82285 19.8388 4.69583ZM12.5211 13.7873V7.33221H6.83094C6.22328 7.33221 5.81389 7.33273 5.49653 7.355C5.18777 7.37667 5.03367 7.41572 4.92936 7.46016C4.52801 7.63115 4.20134 7.96275 4.02926 8.39006C3.98259 8.50592 3.94369 8.6728 3.92233 8.99483C3.90046 9.32447 3.9 9.74863 3.9 10.3726V11.764C3.9 12.058 3.90084 12.1478 3.90668 12.2154C3.9802 13.0666 4.62984 13.7094 5.40985 13.7807C5.47147 13.7864 5.55466 13.7873 5.84211 13.7873H12.5211ZM13.0953 5.53221L14.2127 4.60152C15.0716 3.88609 15.7569 3.31529 16.3192 2.91559C16.8741 2.52108 17.4342 2.19828 18.0371 2.12488C19.3733 1.9622 20.6685 2.60588 21.3732 3.75463C21.6892 4.2699 21.7972 4.9082 21.8483 5.59915C21.9 6.2983 21.9 7.20383 21.9 8.34238V12.5901C21.9 13.6324 21.9 14.4658 21.8516 15.1148C21.8034 15.7616 21.7011 16.3591 21.4091 16.8568C20.7528 17.9757 19.5378 18.6423 18.2449 18.5653C17.6661 18.5308 17.1187 18.2735 16.5712 17.948C16.0215 17.6211 15.3518 17.1491 14.5173 16.561L13.1358 15.5873H12.9V18.6204C12.9 20.4076 11.485 21.9 9.68653 21.9C9.07885 21.9 8.47046 21.7257 7.94961 21.3721C6.82431 20.6083 5.99142 19.9045 5.50498 18.8149C5.11564 17.9428 4.98401 16.898 4.9512 15.5334C3.41188 15.2566 2.25014 13.9538 2.11336 12.3703C2.09992 12.2147 2.09995 12.0403 2.1 11.8048C2.1 11.7914 2.1 11.7778 2.1 11.764L2.1 10.3426C2.09999 9.7561 2.09999 9.272 2.12627 8.87569C2.15352 8.46504 2.21181 8.08454 2.35956 7.71766C2.70591 6.85762 3.37361 6.16643 4.22384 5.80419C4.58888 5.64867 4.96695 5.58774 5.37052 5.55941C5.75839 5.53219 6.23126 5.5322 6.79962 5.53221L13.0953 5.53221ZM6.75376 15.5873C6.78939 16.8215 6.90924 17.5449 7.14862 18.0811C7.42081 18.6908 7.8944 19.1591 8.96053 19.8828C9.16839 20.0239 9.4211 20.1 9.68653 20.1C10.4434 20.1 11.1 19.4617 11.1 18.6204V15.5873H6.75376Z" fill="#007AFF"/>
</svg>

<svg xmlns="http://www.w3.org/2000/svg" width="24" height="24" fill="none"><path fill="currentColor" fill-rule="evenodd" d="M19.839 4.696a1.63 1.63 0 0 0-1.584-.784c-.13.016-.38.106-.893.47-.5.356-1.131.881-2.028 1.628l-1.013.844v7.366l1.201.847c.874.616 1.487 1.047 1.97 1.334.49.292.73.36.86.367.6.036 1.182-.271 1.505-.822.075-.128.156-.38.2-.965.042-.574.043-1.34.043-2.429V8.381c0-1.186 0-2.024-.047-2.65-.047-.64-.136-.908-.214-1.035m-7.318 9.091V7.332h-5.69c-.608 0-1.017 0-1.334.023-.31.022-.463.06-.568.105a1.7 1.7 0 0 0-.9.93c-.046.116-.085.283-.107.605-.022.33-.022.754-.022 1.378v1.391c0 .294 0 .384.007.451.073.852.723 1.494 1.503 1.566.061.005.145.006.432.006zm.574-8.255 1.118-.93c.859-.716 1.544-1.287 2.106-1.686.555-.395 1.115-.718 1.718-.791a3.43 3.43 0 0 1 3.336 1.63c.316.515.424 1.153.475 1.844.052.7.052 1.605.052 2.743v4.248c0 1.042 0 1.876-.048 2.525-.049.647-.15 1.244-.443 1.742a3.44 3.44 0 0 1-3.164 1.708c-.579-.034-1.126-.292-1.674-.617-.55-.327-1.22-.799-2.054-1.387l-1.381-.974H12.9v3.033c0 1.788-1.415 3.28-3.213 3.28a3.1 3.1 0 0 1-1.737-.528c-1.126-.764-1.959-1.468-2.445-2.557-.39-.872-.521-1.917-.554-3.282-1.54-.276-2.7-1.58-2.838-3.163a7 7 0 0 1-.013-.565v-1.462c0-.587 0-1.071.026-1.467.028-.411.086-.791.234-1.158a3.5 3.5 0 0 1 1.864-1.914c.365-.155.743-.216 1.147-.245.387-.027.86-.027 1.429-.027zM6.754 15.587c.035 1.235.155 1.958.395 2.494.272.61.745 1.078 1.812 1.802.207.14.46.217.726.217.756 0 1.413-.638 1.413-1.48v-3.033z" clip-rule="evenodd"/></svg>
